X: 1
T: Wiston Lodge
C:\251 George Meikle
B: George Meikle "Originally Mine" p.12
R:reel
Z:2007 John Chambers <jc:trillian.mit.edu>
M:4/4
L:1/8
K:A
"E7"ed \
|: "A"cdec "C#/A7"ABcA | "D"FGAF "Bm"D2F2 | "A"EAcA "C#/A"ecBA | "Bm"B4 "E7"B2ed |
   "A"cdec "C#/A7"ABcA | "D"FGAF "Bm"D2F2 | "A"EAcA "G#/E7"BEGB |1 "A"A4 "E7"A2ed :|2 "A"A4 "C#/A7"A2AG ||
|: "D"FGAF "Bm"DFAF | "A"EAcE "F#m"e2dc | "Bm"BcdB "E7"edcB | "A"AEBE "C#/A7"c2AG |
   "D"FGAF "Bm"DFAF | "A"EAcE "F#m"e2dc | "Bm"BcdB "E7"edcB | "A"A4 A4 :|
%%begintext align
Composed whilst attending one of the popular dance weekends organised by Isobel Taylor at the YMCA Hostel
at Wiston Lodge, Roberton, Lanarkshire. I was the regular musician playing at these weekends and one of the
visiting teachers was Stanley Wilkie who devised 'Welcome to Wiston' which now uses this as the original tune.
%%endtext

%%sep 1 1 500
%%sep 1 1 500

